X:1
T:Finale from Symphony No 5 Excerpt
T:Finale from Symphony No 5 Excerpt
T:Violin
T:Shostakovich
C:Shostakovich
L:1/8
Q:1/4=132
M:4/4
K:F
V:1 treble nm="Violin" snm="Vln."
V:1
!p! d((c/d/)) B(A/B/) G(A/B/) c(d/_e/) | d(_e/f/) e(f/_g/) B(c/d/) e(f/g/) | %2
 f(_g/_a/)"_cresc." g(a/b/) _c'(b/a/) f(g/a/) | =a(^g/a/) d'(c'/b/) a(=g/a/) bc/d/ | %4
!f! e/f/e/e/ e/f/e/e/ e/a/e/g/ e/f/e/e/ | e/f/e/e/ e/f/e/e/ e/b/e/a/ e/g/e/e/ | %6
[M:5/4] ec'/=b/ ag/^f/ ef/g/ a/=b/c'/d'/ _e'/d'/e'/d'/ | %7
[M:4/4] _e'/d'/c'/=b/ d'/b/c'/d'/ e'/d'/c'/b/ c'/b/c'/d'/ | %8
 _e'/d'/c'/=b/ d'/b/c'/d'/ e'/d'/c'/b/ c'/b/c'/d'/ | %9
 _e'/d'/c'/=b/ d'/b/c'/d'/ e'/d'/c'/b/ c'/b/c'/d'/ | _e' z z2 z4 |] %11

